X: 221
T: Ya Chabib
O: Yemenite
N: introduced by Moshiko Halevy
Z: https://www.youtube.com/watch?v=s1bOPXNsEHU
M: 2/4
L: 1/8
Q: 1/4=160
K: Cm
%%MIDI program 67
 z2 CD | E2 FE |FC CD | EF ED |\
 C2 CD |E2 FE  |FE D2 |C2 z2 ::
 C2G2  |GABA   |G2FE  |FGF2   |\
 GABA  |GFEF   |DEC2  |z4     :|


